X:115
T:B115-  The Devil's progress
Q:1/4=120
L:1/4
M:6/4
K:G
D2DD2D|E2FG2B|A2GG2F|(G3G3)|\
D2DD2D|E2FG2B|A2GG2F|(G3G2)A|\
B2BdG2|F(D2D2)A|B2cA2G|(A3A3)|\
GD2GD2|D2DD2D|EE2F2G|(G3G3)|]
